icons/dashboard-2-fill.svg

<svg width="24" height="24" fill="none" xmlns="http://www.w3.org/2000/svg"><g clip-path="url(#a)"><path d="M12 2c5.523 0 10 4.477 10 10s-4.477 10-10 10S2 17.523 2 12 6.477 2 12 2Zm0 3a7 7 0 0 0-5.106 11.789l.156.16 1.414-1.413a5 5 0 0 1 4.831-8.366l1.563-1.562A6.99 6.99 0 0 0 12 5Zm6.392 4.143-1.561 1.562c.11.413.169.847.169 1.295 0 1.38-.56 2.63-1.464 3.536l1.414 1.414A6.982 6.982 0 0 0 19 12a6.965 6.965 0 0 0-.608-2.857Zm-2.15-2.8-3.725 3.724A2.002 2.002 0 0 0 10 12a2 2 0 1 0 3.933-.517l3.724-3.726-1.414-1.414h-.001Z" /></g><defs><clipPath id="a"><path fill="#fff" d="M0 0h24v24H0z"/></clipPath></defs></svg>

<svg xmlns="http://www.w3.org/2000/svg" width="24" height="24" fill="none"><g clip-path="url(#a)"><g><path fill="#121212" d="M12 2C17.523 2 22 6.477 22 12C22 17.523 17.523 22 12 22C6.477 22 2 17.523 2 12C2 6.477 6.477 2 12 2ZM12 5C8.134 5 5 8.134 5 12C5 13.852 5.72 15.537 6.894 16.789L7.05 16.949L8.464 15.536C7.56 14.63 7 13.38 7 12C7 9.239 9.239 7 12 7C12.448 7 12.882 7.059 13.295 7.17L14.858 5.608C13.985 5.218 13.018 5 12 5ZM18.392 9.143L16.831 10.705C16.941 11.118 17 11.552 17 12C17 13.38 16.44 14.63 15.536 15.536L16.95 16.95C18.216 15.683 19 13.933 19 12C19 10.982 18.783 10.015 18.392 9.143ZM16.242 6.343L12.517 10.067C12.352 10.023 12.179 10 12 10C10.895 10 10 10.895 10 12C10 13.105 10.895 14 12 14C13.105 14 14 13.105 14 12C14 11.821 13.977 11.648 13.933 11.483L17.657 7.757L16.243 6.343H16.242Z"/></g></g><defs><clipPath id="a"><rect width="24" height="24" fill="white"/></clipPath></defs></svg>
